X: 19909
T: Jig For Yvette
R: slip jig
M: 9/8
K: Adorian
E|:AcB AcE EDB,|A,ED B,GD EAA|AEA BAB eg/f/e|ged BAG A2E|
AcB Ace aba|age edc B/c/dc|Bcd dBd g3|1 dgd BAG E2A:|2 dgd Bcd cBA||
Aaa aea bag|g3 dcB A2b|age edc Bcd|Gdc Bcd cBA|
Aaa aea bag|g3 gab aea|bag age d3|g3 Bcd cBA|
Aba aea bag|g3 dcB Ace|age edc Bcd|Gdc Bcd cBA|
C2A, B,DG DGB|EAc e2c B/c/dc|Bcd dBd g3|dgd BAG E3||

